assets/svg/1F3A8.svg

<svg xmlns="http://www.w3.org/2000/svg" viewBox="0 0 64 64" enable-background="new 0 0 64 64"><path fill="#c2986b" d="m5.306 49.865c1.094 1.592 2.327 3.119 3.743 4.532 12.514 12.512 32.795 12.517 45.31 0 12.515-12.513 12.513-32.794-.002-45.31-12.512-12.507-32.793-12.512-45.31 0-5.144 5.142-8.135 11.599-9.05 18.288l14.247-2.61-8.941 25.1"/><path fill="#9f7d5c" d="m37.01 13.302c12.629 4.6 22.08 13.693 26.11 24.981 2.101-10.197-.794-21.22-8.71-29.14-12.511-12.516-32.793-12.516-45.3 0-.229.22-.415.466-.63.694 9.562-.82 19.2.064 28.531 3.462"/><path fill="#02897d" d="m29.875 13.75c0 3.529-2.865 6.394-6.396 6.394-3.529 0-6.394-2.865-6.394-6.394 0-3.533 2.865-6.398 6.394-6.398 3.532.0001 6.396 2.865 6.396 6.398"/><circle fill="#e45264" cx="40.875" cy="17.808" r="6.394"/><circle fill="#405967" cx="49.981" cy="35.613" r="6.395"/><path fill="#ed2e7c" d="m44.06 52.73c0 3.533-2.864 6.394-6.396 6.394-3.528 0-6.393-2.86-6.393-6.394 0-3.534 2.865-6.395 6.393-6.395 3.532.0001 6.396 2.861 6.396 6.395"/><path fill="#e7e6e6" d="m23.482 49.22c0 3.534-2.865 6.395-6.396 6.395-3.529 0-6.394-2.86-6.394-6.395 0-3.533 2.865-6.394 6.394-6.394 3.531 0 6.396 2.86 6.396 6.394"/></svg>

<?xml version="1.0" encoding="utf-8"?>
<!-- Generator: Adobe Illustrator 16.0.0, SVG Export Plug-In . SVG Version: 6.00 Build 0)  -->
<!DOCTYPE svg PUBLIC "-//W3C//DTD SVG 1.1//EN" "http://www.w3.org/Graphics/SVG/1.1/DTD/svg11.dtd">
<svg version="1.1" id="Layer_1" xmlns="http://www.w3.org/2000/svg" xmlns:xlink="http://www.w3.org/1999/xlink" x="0px" y="0px"
	 width="64px" height="64px" viewBox="0 0 64 64" enable-background="new 0 0 64 64" xml:space="preserve">
<g>
	<path fill="#C2986B" d="M5.306,49.865c1.094,1.592,2.327,3.119,3.743,4.532c12.514,12.512,32.795,12.517,45.309,0
		c12.515-12.513,12.513-32.794-0.002-45.31C41.844-3.42,21.563-3.425,9.049,9.087C3.905,14.229,0.914,20.686,0,27.375l14.247-2.61
		L5.306,49.865z"/>
	<path fill="#9F7D5C" d="M37.007,13.302c12.629,4.6,22.079,13.693,26.114,24.981c2.101-10.197-0.794-21.224-8.71-29.137
		C41.9-3.37,21.618-3.37,9.106,9.146c-0.229,0.22-0.415,0.466-0.63,0.694C18.038,9.02,27.677,9.904,37.007,13.302z"/>
	<path fill="#02897D" d="M29.875,13.75c0,3.529-2.865,6.394-6.396,6.394c-3.529,0-6.394-2.865-6.394-6.394
		c0-3.533,2.865-6.398,6.394-6.398C27.011,7.353,29.875,10.217,29.875,13.75z"/>
	<circle fill="#E45264" cx="40.875" cy="17.808" r="6.394"/>
	<circle fill="#405967" cx="49.981" cy="35.613" r="6.395"/>
	<path fill="#ED2E7C" d="M44.062,52.73c0,3.533-2.864,6.394-6.396,6.394c-3.528,0-6.393-2.86-6.393-6.394
		c0-3.534,2.865-6.395,6.393-6.395C41.198,46.336,44.062,49.196,44.062,52.73z"/>
	<path fill="#E7E6E6" d="M23.482,49.222c0,3.534-2.865,6.395-6.396,6.395c-3.529,0-6.394-2.86-6.394-6.395
		c0-3.533,2.865-6.394,6.394-6.394C20.617,42.828,23.482,45.688,23.482,49.222z"/>
</g>
</svg>
